svgs/solid/farm.svg

<svg xmlns="http://www.w3.org/2000/svg" viewBox="0 0 576 512"><!--! Font Awesome Pro 6.2.0 by @fontawesome - https://fontawesome.com License - https://fontawesome.com/license (Commercial License) Copyright 2022 Fonticons, Inc. --><path d="M0 96C0 43 43 0 96 0s96 43 96 96v14.3c-4.3 5-7.7 10.7-10.3 16.9l-.3 .7H0V96zm168.2 64l-35.4 86c-3.2 7.7-4.8 16-4.8 24.4V480c0 11.7 3.1 22.6 8.6 32H48c-26.5 0-48-21.5-48-48V160H168.2zM160 480V270.3c0-4.2 .8-8.3 2.4-12.2l48.9-118.7c3-7.4 8.7-13.3 15.9-16.7L354.3 62.5c8.7-4.1 18.7-4.1 27.4 0l127.1 60.2c7.2 3.4 12.9 9.4 15.9 16.7l48.9 118.7c1.6 3.9 2.4 8 2.4 12.2V480c0 17.7-14.3 32-32 32H432V448c0-26.5-21.5-48-48-48H352c-26.5 0-48 21.5-48 48v64H192c-17.7 0-32-14.3-32-32zM320 248v48c0 13.3 10.7 24 24 24h48c13.3 0 24-10.7 24-24V248c0-13.3-10.7-24-24-24H344c-13.3 0-24 10.7-24 24z"/></svg>

<svg xmlns="http://www.w3.org/2000/svg" viewBox="0 0 576 512"><!--! Font Awesome Pro 6.1.2 by @fontawesome - https://fontawesome.com License - https://fontawesome.com/license (Commercial License) Copyright 2022 Fonticons, Inc. --><path d="M0 96C0 42.98 42.98 0 96 0C149 0 192 42.98 192 96V110.3C187.7 115.3 184.3 121.1 181.7 127.3L181.4 127.1H0V96zM132.8 245.1C129.6 253.7 128 261.1 128 270.3V480C128 491.7 131.1 502.6 136.6 512H48C21.49 512 0 490.5 0 464V160H168.2L132.8 245.1zM160 480V270.3C160 266.2 160.8 262 162.4 258.1L211.3 139.4C214.3 132.1 219.1 126.1 227.2 122.7L354.3 62.49C362.1 58.38 373 58.38 381.7 62.49L508.8 122.7C516 126.1 521.7 132.1 524.7 139.4L573.6 258.1C575.2 262 576 266.2 576 270.3V480C576 497.7 561.7 512 544 512H432V448C432 421.5 410.5 400 384 400H352C325.5 400 304 421.5 304 448V512H191.1C174.3 512 159.1 497.7 159.1 480H160zM320 296C320 309.3 330.7 320 344 320H392C405.3 320 416 309.3 416 296V248C416 234.7 405.3 224 392 224H344C330.7 224 320 234.7 320 248V296z"/></svg>
